paymentMethods/bancontact.svg

<svg width="128" height="64" viewBox="0 0 128 64" fill="none" xmlns="http://www.w3.org/2000/svg">
<rect width="128" height="64" rx="6" fill="white"/>
<path d="M23.7431 56.7972V45.1797H27.3338C29.9427 45.1797 31.6199 46.1615 31.6199 48.1886C31.6367 48.6674 31.527 49.142 31.302 49.5649C31.077 49.9878 30.7446 50.344 30.3382 50.5976C30.8711 50.8317 31.3202 51.2222 31.6262 51.7173C31.9322 52.2124 32.0806 52.7888 32.0517 53.3702C32.0517 55.7155 30.3382 56.8109 27.6792 56.8109L23.7431 56.7972ZM26.052 49.9794H27.7656C28.811 49.9794 29.261 49.4658 29.261 48.5159C29.261 47.5659 28.4474 47.1523 27.3474 47.1523H26.052V49.9794ZM26.052 54.7474H27.4838C28.8792 54.7474 29.6928 54.3974 29.6928 53.302C29.6928 52.2066 28.9928 51.7748 27.6792 51.7748H26.052V54.7474ZM36.506 56.9745C34.2334 56.9745 33.0835 55.8609 33.0835 54.3656C33.0835 52.7202 34.447 51.7566 36.4242 51.7384C36.9193 51.7473 37.413 51.7929 37.9014 51.8748V51.4748C37.9014 50.4612 37.3196 49.9794 36.206 49.9794C35.4568 49.9703 34.7129 50.1061 34.0152 50.3794L33.5971 48.5613C34.5189 48.2256 35.4931 48.0563 36.4742 48.0613C38.915 48.0613 40.1104 49.3567 40.1104 51.6021V56.22C38.9685 56.7335 37.7258 56.9836 36.4742 56.9518L36.506 56.9745ZM37.9014 55.0973V53.3611C37.5148 53.2749 37.1203 53.2292 36.7242 53.2247C35.956 53.2247 35.3606 53.5247 35.3606 54.3065C35.3606 55.0019 35.8606 55.37 36.7242 55.37C37.1246 55.3825 37.5227 55.3032 37.8878 55.1382L37.9014 55.0973ZM41.7421 56.7745V48.8386C42.9357 48.3585 44.2099 48.1101 45.4964 48.1068C47.9236 48.1068 49.319 49.3022 49.319 51.5112V56.7972H47.0464V51.6793C47.0464 50.5339 46.5146 50.0022 45.5055 50.0022C45.0016 49.9939 44.502 50.0963 44.042 50.3021V56.7972L41.7421 56.7745ZM57.3322 48.5931L56.8777 50.4112C56.2835 50.1567 55.6466 50.0163 55.0005 49.9976C53.6369 49.9976 52.9233 50.943 52.9233 52.5066C52.9233 54.2156 53.6869 55.0973 55.1141 55.0973C55.754 55.0749 56.3823 54.9201 56.9595 54.6428L57.3231 56.4882C56.5711 56.822 55.7549 56.9865 54.9323 56.97C52.1734 56.97 50.578 55.2564 50.578 52.5475C50.578 49.8385 52.1597 48.0795 54.8005 48.0795C55.6619 48.0762 56.5151 48.2463 57.3094 48.5795L57.3322 48.5931ZM62.3046 56.9972C59.7502 56.9972 58.1549 55.2201 58.1549 52.5429C58.1549 49.8658 59.7502 48.1068 62.3046 48.1068C64.859 48.1068 66.4453 49.884 66.4453 52.5429C66.4453 55.2019 64.8818 56.9972 62.3046 56.9972ZM62.3046 55.1019C63.4864 55.1019 64.1 54.1201 64.1 52.5429C64.1 50.9657 63.4864 50.0022 62.3046 50.0022C61.1229 50.0022 60.4865 50.9839 60.4865 52.5429C60.4865 54.1019 61.1365 55.1019 62.3046 55.1019ZM67.7589 56.7972V48.8386C68.9541 48.3585 70.2297 48.1101 71.5178 48.1068C73.9404 48.1068 75.3357 49.3022 75.3357 51.5112V56.7972H73.0631V51.6793C73.0631 50.5339 72.5314 50.0022 71.5178 50.0022C71.0138 49.9939 70.5143 50.0963 70.0542 50.3021V56.7972H67.7589ZM80.4855 56.9972C78.5083 56.9972 77.4947 55.9155 77.4947 53.7247V50.134H76.363V48.3159H77.4947V46.4614L79.7673 46.3478V48.3068H81.6127V50.1249H79.7946V53.6792C79.7946 54.6428 80.1946 55.0928 80.9445 55.0928C81.2398 55.0937 81.5342 55.0602 81.8218 54.9928L81.9399 56.8382C81.4654 56.9426 80.9805 56.993 80.4946 56.9881L80.4855 56.9972ZM86.2715 56.9972C83.9989 56.9972 82.849 55.8837 82.849 54.3883C82.849 52.7429 84.2125 51.7793 86.1897 51.7612C86.6848 51.7701 87.1786 51.8156 87.6669 51.8975V51.4975C87.6669 50.4839 87.0851 50.0022 85.9715 50.0022C85.2224 49.9935 84.4785 50.1293 83.7807 50.4021L83.3626 48.6068C84.2844 48.271 85.2586 48.1017 86.2397 48.1068C88.6805 48.1068 89.8759 49.4022 89.8759 51.6475V56.2655C88.734 56.7789 87.4913 57.029 86.2397 56.9972H86.2715ZM87.6669 55.1201V53.3611C87.2803 53.2749 86.8858 53.2292 86.4897 53.2247C85.7215 53.2247 85.1261 53.5247 85.1261 54.3065C85.1261 55.0019 85.6261 55.37 86.4897 55.37C86.8901 55.3825 87.2882 55.3032 87.6533 55.1382L87.6669 55.1201ZM97.7709 48.6068L97.3164 50.4249C96.7222 50.1703 96.0854 50.03 95.4392 50.0112C94.0756 50.0112 93.3621 50.9567 93.3621 52.5202C93.3621 54.2292 94.1256 55.111 95.5528 55.111C96.1927 55.0885 96.8211 54.9338 97.3982 54.6564L97.7618 56.5018C97.0081 56.8417 96.1886 57.0108 95.3619 56.9972C92.603 56.9972 91.0076 55.2837 91.0076 52.5747C91.0076 49.8658 92.5894 48.1068 95.2301 48.1068C96.0915 48.1035 96.9448 48.2736 97.7391 48.6068H97.7709ZM102.812 56.9972C100.834 56.9972 99.8208 55.9155 99.8208 53.7247V50.134H98.689V48.3159H99.8208V46.4614L102.093 46.3478V48.3068H103.939V50.1249H102.093V53.6792C102.093 54.6428 102.493 55.0928 103.243 55.0928C103.539 55.0937 103.833 55.0602 104.121 54.9928L104.239 56.8382C103.764 56.9426 103.279 56.993 102.793 56.9881L102.812 56.9972Z" fill="#1E3764"/>
<path d="M39.7377 39.3528C51.8688 39.3528 57.9185 31.2623 64 23.1764H23.7431V39.3528H39.7377Z" fill="url(#paint0_linear_2_111)"/>
<path d="M88.2623 7C76.1312 7 70.0815 15.0859 64 23.1764H104.257V7H88.2623Z" fill="url(#paint1_linear_2_111)"/>
<defs>
<linearGradient id="paint0_linear_2_111" x1="31.8881" y1="32.0123" x2="61.3365" y2="21.072" gradientUnits="userSpaceOnUse">
<stop stop-color="#005AB9"/>
<stop offset="1" stop-color="#1E3764"/>
</linearGradient>
<linearGradient id="paint1_linear_2_111" x1="66.4362" y1="24.5809" x2="97.7073" y2="13.9087" gradientUnits="userSpaceOnUse">
<stop stop-color="#FBA900"/>
<stop offset="1" stop-color="#FFD800"/>
</linearGradient>
</defs>
</svg>

<svg xmlns="http://www.w3.org/2000/svg" width="128" height="64" fill="none"><rect width="128" height="64" fill="#fff" rx="6"/><path fill="#1E3764" d="M23.743 56.797V45.18h3.59c2.61 0 4.287.981 4.287 3.009a2.726 2.726 0 0 1-1.282 2.409 2.872 2.872 0 0 1 1.714 2.772c0 2.346-1.714 3.44-4.373 3.44l-3.936-.013Zm2.309-6.818h1.714c1.045 0 1.495-.513 1.495-1.463 0-.95-.814-1.364-1.914-1.364h-1.295v2.827Zm0 4.768h1.432c1.395 0 2.209-.35 2.209-1.445 0-1.095-.7-1.527-2.014-1.527h-1.627v2.972Zm10.454 2.227c-2.273 0-3.422-1.113-3.422-2.608 0-1.646 1.363-2.61 3.34-2.628.495.01.989.055 1.477.137v-.4c0-1.014-.581-1.496-1.695-1.496a5.813 5.813 0 0 0-2.19.4l-.419-1.818a8.285 8.285 0 0 1 2.877-.5c2.441 0 3.636 1.296 3.636 3.541v4.618a8.349 8.349 0 0 1-3.636.732l.032.023Zm1.395-1.877v-1.736a5.707 5.707 0 0 0-1.177-.136c-.768 0-1.363.3-1.363 1.081 0 .696.5 1.064 1.363 1.064.4.013.799-.067 1.164-.232l.013-.04Zm3.841 1.678v-7.936a10.13 10.13 0 0 1 3.754-.732c2.428 0 3.823 1.195 3.823 3.404v5.286h-2.273V51.68c0-1.145-.531-1.677-1.54-1.677a3.445 3.445 0 0 0-1.464.3v6.495l-2.3-.022Zm15.59-8.182-.454 1.818A5.146 5.146 0 0 0 55 49.998c-1.364 0-2.078.945-2.078 2.509 0 1.709.764 2.59 2.191 2.59a4.636 4.636 0 0 0 1.846-.454l.363 1.845a5.615 5.615 0 0 1-2.39.482c-2.76 0-4.355-1.714-4.355-4.422 0-2.71 1.582-4.468 4.222-4.468a6.422 6.422 0 0 1 2.51.5l.022.013Zm4.973 8.404c-2.555 0-4.15-1.777-4.15-4.454 0-2.677 1.595-4.436 4.15-4.436 2.554 0 4.14 1.777 4.14 4.436s-1.563 4.454-4.14 4.454Zm0-1.895c1.181 0 1.795-.982 1.795-2.56 0-1.576-.614-2.54-1.795-2.54-1.182 0-1.819.982-1.819 2.54 0 1.56.65 2.56 1.819 2.56Zm5.454 1.695V48.84c1.195-.48 2.47-.729 3.759-.732 2.422 0 3.818 1.195 3.818 3.404v5.286h-2.273V51.68c0-1.145-.532-1.677-1.545-1.677a3.445 3.445 0 0 0-1.464.3v6.495H67.76Zm12.727.2c-1.978 0-2.991-1.081-2.991-3.272v-3.591h-1.132v-1.818h1.132V46.46l2.272-.113v1.959h1.846v1.818h-1.818v3.554c0 .964.4 1.414 1.15 1.414.295 0 .59-.033.877-.1l.118 1.845c-.475.105-.96.155-1.445.15l-.01.01Zm5.785 0c-2.272 0-3.422-1.113-3.422-2.609 0-1.645 1.364-2.609 3.34-2.627.496.01.99.055 1.478.136v-.4c0-1.013-.582-1.495-1.695-1.495a5.831 5.831 0 0 0-2.191.4l-.418-1.795a8.28 8.28 0 0 1 2.877-.5c2.44 0 3.636 1.295 3.636 3.54v4.619a8.35 8.35 0 0 1-3.636.731h.032Zm1.396-1.877v-1.759a5.707 5.707 0 0 0-1.177-.136c-.768 0-1.364.3-1.364 1.081 0 .696.5 1.064 1.364 1.064.4.013.798-.067 1.163-.232l.014-.018Zm10.104-6.513-.455 1.818a5.146 5.146 0 0 0-1.877-.414c-1.363 0-2.077.946-2.077 2.51 0 1.708.764 2.59 2.19 2.59a4.636 4.636 0 0 0 1.846-.455l.364 1.846a5.613 5.613 0 0 1-2.4.495c-2.759 0-4.354-1.713-4.354-4.422 0-2.71 1.581-4.468 4.222-4.468a6.423 6.423 0 0 1 2.51.5h.03Zm5.041 8.39c-1.978 0-2.991-1.081-2.991-3.272v-3.591h-1.132v-1.818h1.132V46.46l2.272-.113v1.959h1.846v1.818h-1.846v3.554c0 .964.4 1.414 1.15 1.414.296 0 .59-.033.878-.1l.118 1.845c-.475.105-.96.155-1.446.15l.019.01Z"/><path fill="url(#a)" d="M39.738 39.353c12.13 0 18.18-8.09 24.262-16.177H23.743v16.177h15.995Z"/><path fill="url(#b)" d="M88.262 7C76.132 7 70.082 15.086 64 23.176h40.257V7H88.262Z"/><defs><linearGradient id="a" x1="31.888" x2="61.337" y1="32.012" y2="21.072" gradientUnits="userSpaceOnUse"><stop stop-color="#005AB9"/><stop offset="1" stop-color="#1E3764"/></linearGradient><linearGradient id="b" x1="66.436" x2="97.707" y1="24.581" y2="13.909" gradientUnits="userSpaceOnUse"><stop stop-color="#FBA900"/><stop offset="1" stop-color="#FFD800"/></linearGradient></defs></svg>
